svg/bank-note.svg

<?xml version="1.0" encoding="UTF-8" standalone="no"?>
<svg width="100px" height="20px" viewBox="0 0 100 20" version="1.1" xmlns="http://www.w3.org/2000/svg" xmlns:xlink="http://www.w3.org/1999/xlink">
    <!-- Generator: Sketch 40 (33762) - http://www.bohemiancoding.com/sketch -->
    <title>bank-note</title>
    <desc>Created with Sketch.</desc>
    <defs></defs>
    <g id="Page-1" stroke="none" stroke-width="1" fill="none" fill-rule="evenodd">
        <g id="bank-note" fill="#000000">
            <path d="M21.1841339,20 C21.5411448,19.869748 21.9037256,19.7358773 22.272392,19.5983261 C22.6346445,19.4631679 23.8705367,18.9999982 24.0399055,18.9366758 C33.6397477,15.3475548 39.6469349,14 50,14 C60.2711361,14 65.3618399,15.2217689 74.6286093,18.9284767 C75.584355,19.310775 76.4978747,19.6675274 77.3787841,20 L83.604005,20 C81.0931362,19.2694473 78.4649665,18.3089537 75.3713907,17.0715233 C65.8881601,13.2782311 60.5621972,12 50,12 C39.3741437,12 33.144814,13.3973866 23.3395101,17.0633242 C23.1688625,17.1271247 21.9338538,17.5899633 21.5732596,17.7245028 C19.0984715,18.6478581 16.912678,19.3994574 14.8494171,20 L21.1841339,20 L21.1841339,20 Z M21.1841339,0 C13.2575214,2.89194861 8.07672845,4 7.87150385e-14,4 L7.81597009e-14,4 L0,2 C5.74391753,2 9.9514017,1.4256397 14.8494171,1.40165657e-15 L21.1841339,6.9388939e-17 L21.1841339,0 Z M77.3787841,2.21705987e-12 C85.238555,2.9664329 90.5022896,4 100,4 L100,2 C93.1577329,2 88.6144135,1.4578092 83.604005,1.04805054e-13 L77.3787841,0 L77.3787841,2.21705987e-12 Z M7.87150385e-14,14 C8.44050043,14 13.7183277,12.7898887 22.272392,9.59832609 C22.6346445,9.46316794 23.8705367,8.99999822 24.0399055,8.9366758 C33.6397477,5.34755477 39.6469349,4 50,4 C60.2711361,4 65.3618399,5.2217689 74.6286093,8.92847669 C84.1118399,12.7217689 89.4378028,14 100,14 L100,12 C89.7288639,12 84.6381601,10.7782311 75.3713907,7.07152331 C65.8881601,3.2782311 60.5621972,2 50,2 C39.3741437,2 33.144814,3.39738661 23.3395101,7.0633242 C23.1688625,7.12712472 21.9338538,7.58996334 21.5732596,7.72450279 C13.2235239,10.8398294 8.16350991,12 0,12 L7.81597009e-14,14 L7.87150385e-14,14 L7.87150385e-14,14 Z" id="Combined-Shape"></path>
        </g>
    </g>
</svg>

<svg width="100" height="20" xmlns="http://www.w3.org/2000/svg"><path d="M21.184 20c.357-.13.72-.264 1.088-.402l1.768-.661C33.64 15.347 39.647 14 50 14c10.271 0 15.362 1.222 24.629 4.928.955.383 1.869.74 2.75 1.072h6.225c-2.51-.73-5.139-1.691-8.233-2.928C65.888 13.278 60.562 12 50 12c-10.626 0-16.855 1.397-26.66 5.063l-1.767.662c-2.475.923-4.66 1.674-6.724 2.275h6.335Zm0-20C13.258 2.892 8.077 4 0 4V2c5.744 0 9.951-.574 14.85-2h6.334ZM77.38 0C85.239 2.966 90.502 4 100 4V2c-6.842 0-11.386-.542-16.396-2h-6.225ZM0 14c8.44 0 13.718-1.21 22.272-4.402l1.768-.661C33.64 5.347 39.647 4 50 4c10.271 0 15.362 1.222 24.629 4.928C84.112 12.722 89.438 14 100 14v-2c-10.271 0-15.362-1.222-24.629-4.928C65.888 3.278 60.562 2 50 2 39.374 2 33.145 3.397 23.34 7.063l-1.767.662C13.223 10.84 8.163 12 0 12v2Z" fill="#000" fill-rule="evenodd"/></svg>
